styles/noto-emoji/1f3e2.svg

<svg xmlns="http://www.w3.org/2000/svg" width="128" height="128" viewBox="0 0 128 128"><path fill="#006CA2" d="M21.48 13.03h86.74V128H21.48z"/><path fill="#006CA2" d="M19.3 17.3h91.21v79.87H19.3z"/><path fill="#78A3AD" d="M105.83 2.78H22.16c-5.08 0-9.24 4.15-9.24 9.24V128h35.6v-13.36c0-2.83 2.31-5.15 5.14-5.15h20.66c2.84 0 5.16 2.32 5.16 5.15V128h35.6V12.02c-.01-5.08-4.16-9.24-9.25-9.24zm-67.68 85.4h-13v-15.7h13v15.7zm0-24.96h-13v-15.7h13v15.7zm0-24.95h-13v-15.7h13v15.7zm21.79 49.91H46.93v-15.7h13.01v15.7zm0-24.96H46.93v-15.7h13.01v15.7zm0-24.95H46.93v-15.7h13.01v15.7zm21.78 49.91h-13v-15.7h13v15.7zm0-24.96h-13v-15.7h13v15.7zm0-24.95h-13v-15.7h13v15.7zm21.79 49.91H90.5v-15.7h13.01v15.7zm0-24.96H90.5v-15.7h13.01v15.7zm0-24.95H90.5v-15.7h13.01v15.7z"/></svg>

<?xml version="1.0" encoding="utf-8"?>
<!-- Generator: Adobe Illustrator 16.0.0, SVG Export Plug-In . SVG Version: 6.00 Build 0)  -->
<!DOCTYPE svg PUBLIC "-//W3C//DTD SVG 1.1//EN" "http://www.w3.org/Graphics/SVG/1.1/DTD/svg11.dtd">
<svg version="1.1" id="レイヤー_1" xmlns="http://www.w3.org/2000/svg" xmlns:xlink="http://www.w3.org/1999/xlink" x="0px"
	 y="0px" width="128px" height="128px" viewBox="0 0 128 128" enable-background="new 0 0 128 128" xml:space="preserve">
<g>
	<rect x="21.48" y="13.03" fill="#006CA2" width="86.74" height="114.97"/>
	<g>
		<rect x="19.3" y="17.3" fill="#006CA2" width="91.21" height="79.87"/>
		<path fill="#78A3AD" d="M105.83,2.78H22.16c-5.08,0-9.24,4.15-9.24,9.24V128h35.6v-13.36c0-2.83,2.31-5.15,5.14-5.15h20.66
			c2.84,0,5.16,2.32,5.16,5.15V128h35.6V12.02C115.07,6.94,110.92,2.78,105.83,2.78z M38.15,88.18h-13v-15.7h13V88.18z M38.15,63.22
			h-13v-15.7h13V63.22z M38.15,38.27h-13v-15.7h13V38.27z M59.94,88.18H46.93v-15.7h13.01V88.18z M59.94,63.22H46.93v-15.7h13.01
			V63.22z M59.94,38.27H46.93v-15.7h13.01V38.27z M81.72,88.18h-13v-15.7h13V88.18z M81.72,63.22h-13v-15.7h13V63.22z M81.72,38.27
			h-13v-15.7h13V38.27z M103.51,88.18H90.5v-15.7h13.01V88.18z M103.51,63.22H90.5v-15.7h13.01V63.22z M103.51,38.27H90.5v-15.7
			h13.01V38.27z"/>
	</g>
</g>
</svg>
